public/svgs/regular/chess-clock.svg

<svg xmlns="http://www.w3.org/2000/svg" viewBox="0 0 640 512"><!-- Font Awesome Pro 6.0.0-alpha2 by @fontawesome - https://fontawesome.com License - https://fontawesome.com/license (Commercial License) --><path d="M576 112H544V104C544 90.746 533.256 80 520 80H408C394.746 80 384 90.746 384 104V112H200V80H232C245.256 80 256 69.254 256 56S245.256 32 232 32H120C106.746 32 96 42.746 96 56S106.746 80 120 80H152V112H64C28.654 112 0 140.654 0 176V416C0 451.346 28.654 480 64 480H576C611.348 480 640 451.346 640 416V176C640 140.654 611.348 112 576 112ZM592 416C592 424.822 584.822 432 576 432H64C55.178 432 48 424.822 48 416V176C48 167.178 55.178 160 64 160H576C584.822 160 592 167.178 592 176V416ZM200 192C142.562 192 96 238.562 96 296S142.562 400 200 400S304 353.438 304 296S257.438 192 200 192ZM216 288C216 296.844 208.844 304 200 304S184 296.844 184 288V240C184 231.156 191.156 224 200 224S216 231.156 216 240V288ZM366.461 222.461C325.846 263.074 325.846 328.924 366.461 369.539C407.076 410.152 472.924 410.152 513.539 369.539C554.154 328.924 554.154 263.074 513.539 222.461C472.924 181.846 407.076 181.846 366.461 222.461ZM490.912 267.715L456.971 301.656C450.717 307.91 440.598 307.91 434.344 301.656S428.09 285.283 434.344 279.029L468.285 245.088C474.537 238.834 484.658 238.834 490.912 245.088S497.166 261.461 490.912 267.715Z"/></svg>

<svg xmlns="http://www.w3.org/2000/svg" viewBox="0 0 640 512"><!--! Font Awesome Pro 6.5.1 by @fontawesome - https://fontawesome.com License - https://fontawesome.com/license (Commercial License) Copyright 2023 Fonticons, Inc. --><path d="M256 56c0-13.3-10.7-24-24-24H120c-13.3 0-24 10.7-24 24s10.7 24 24 24h32v32H64c-35.3 0-64 28.7-64 64V416c0 35.3 28.7 64 64 64H576c35.3 0 64-28.7 64-64V176c0-35.3-28.7-64-64-64H544V96c0-8.8-7.2-16-16-16H400c-8.8 0-16 7.2-16 16v16H200V80h32c13.3 0 24-10.7 24-24zM576 160c8.8 0 16 7.2 16 16V416c0 8.8-7.2 16-16 16H64c-8.8 0-16-7.2-16-16V176c0-8.8 7.2-16 16-16H576zM200 400a104 104 0 1 0 0-208 104 104 0 1 0 0 208zM184 240c0-8.8 7.2-16 16-16s16 7.2 16 16v48c0 8.8-7.2 16-16 16s-16-7.2-16-16V240zM513.5 369.5A104 104 0 1 0 366.5 222.5 104 104 0 1 0 513.5 369.5zM490.9 245.1c6.2 6.2 6.2 16.4 0 22.6L457 301.7c-6.2 6.2-16.4 6.2-22.6 0s-6.2-16.4 0-22.6l33.9-33.9c6.2-6.2 16.4-6.2 22.6 0z"/></svg>
